X: 33045
T: Pride Of Petravore, The
R: hornpipe
M: 4/4
K: Eminor
|:E3F G3A|BcBA GEFE|D3E F3G|ABAG FDED|
EDEF GFGA|BcBA GEFA|B/B/B/B/B/B/B/B/ BAFG|E2ee e4:|
|:e2e2 e3e|dBGA B2Bc|BAFE F2AB|AGED E2GB|
cdef gfge|dBGA ~B2GA|B/B/B/B/B/B/B/B/ BAFG|1 E2e2 e4:|2 E2B,2 C2B,2||

